flaticon/programming-line/password.svg

<svg xmlns="http://www.w3.org/2000/svg" width="32" height="32" viewBox="0 0 24 24">
    <path d="M 22.519531 6.199219 L 1.480469 6.199219 C 0.664062 6.199219 0 6.863281 0 7.679688 L 0 12.1875 C 0 13.003906 0.664062 13.667969 1.480469 13.667969 L 14.628906 13.667969 C 14.824219 13.667969 14.980469 13.507812 14.980469 13.316406 C 14.980469 13.121094 14.824219 12.960938 14.628906 12.960938 L 1.480469 12.960938 C 1.050781 12.960938 0.703125 12.613281 0.703125 12.1875 L 0.703125 7.679688 C 0.703125 7.25 1.050781 6.902344 1.480469 6.902344 L 22.519531 6.902344 C 22.949219 6.902344 23.296875 7.25 23.296875 7.679688 L 23.296875 11.0625 C 23.296875 11.253906 23.453125 11.414062 23.648438 11.414062 C 23.84375 11.414062 24 11.253906 24 11.0625 L 24 7.679688 C 24 6.863281 23.335938 6.199219 22.519531 6.199219 Z M 22.519531 6.199219"/>
    <path d="M22.496094 11.894531L22.496094 11.4375C22.496094 9.792969 21.160156 8.453125 19.515625 8.453125 17.871094 8.453125 16.53125 9.792969 16.53125 11.4375L16.53125 11.894531C16.097656 12.039062 15.78125 12.453125 15.78125 12.9375L15.78125 16.695312C15.78125 17.304688 16.277344 17.800781 16.882812 17.800781L22.144531 17.800781C22.753906 17.800781 23.25 17.304688 23.25 16.695312L23.25 12.9375C23.25 12.453125 22.933594 12.039062 22.496094 11.894531zM19.515625 9.160156C20.769531 9.160156 21.792969 10.179688 21.792969 11.4375L21.792969 11.835938 17.238281 11.835938 17.238281 11.4375C17.238281 10.179688 18.257812 9.160156 19.515625 9.160156zM22.542969 16.695312C22.542969 16.917969 22.363281 17.097656 22.144531 17.097656L16.882812 17.097656C16.664062 17.097656 16.484375 16.917969 16.484375 16.695312L16.484375 12.9375C16.484375 12.71875 16.664062 12.539062 16.882812 12.539062L22.144531 12.539062C22.363281 12.539062 22.542969 12.71875 22.542969 12.9375zM5.714844 9.007812C5.617188 8.835938 5.402344 8.78125 5.234375 8.875L4.460938 9.324219 4.460938 8.429688C4.460938 8.234375 4.304688 8.078125 4.109375 8.078125 3.914062 8.078125 3.757812 8.234375 3.757812 8.429688L3.757812 9.324219 2.984375 8.875C2.816406 8.78125 2.601562 8.835938 2.503906 9.007812 2.40625 9.175781 2.464844 9.390625 2.632812 9.488281L3.40625 9.933594 2.632812 10.378906C2.464844 10.476562 2.40625 10.691406 2.503906 10.859375 2.566406 10.972656 2.6875 11.039062 2.808594 11.039062 2.867188 11.039062 2.929688 11.023438 2.984375 10.988281L3.757812 10.542969 3.757812 11.4375C3.757812 11.632812 3.914062 11.789062 4.109375 11.789062 4.304688 11.789062 4.460938 11.632812 4.460938 11.4375L4.460938 10.542969 5.234375 10.988281C5.289062 11.023438 5.351562 11.039062 5.410156 11.039062 5.53125 11.039062 5.652344 10.972656 5.714844 10.859375 5.8125 10.691406 5.753906 10.476562 5.585938 10.378906L4.8125 9.933594 5.585938 9.488281C5.753906 9.390625 5.8125 9.175781 5.714844 9.007812zM10.226562 9.007812C10.128906 8.835938 9.914062 8.78125 9.742188 8.875L8.96875 9.324219 8.96875 8.429688C8.96875 8.234375 8.8125 8.078125 8.617188 8.078125 8.425781 8.078125 8.265625 8.234375 8.265625 8.429688L8.265625 9.324219 7.492188 8.875C7.324219 8.78125 7.109375 8.835938 7.011719 9.007812 6.914062 9.175781 6.972656 9.390625 7.140625 9.488281L7.914062 9.933594 7.140625 10.378906C6.972656 10.476562 6.914062 10.691406 7.011719 10.859375 7.078125 10.972656 7.195312 11.039062 7.316406 11.039062 7.375 11.039062 7.4375 11.023438 7.492188 10.988281L8.265625 10.542969 8.265625 11.4375C8.265625 11.632812 8.425781 11.789062 8.617188 11.789062 8.8125 11.789062 8.96875 11.632812 8.96875 11.4375L8.96875 10.542969 9.742188 10.988281C9.800781 11.023438 9.859375 11.039062 9.917969 11.039062 10.042969 11.039062 10.160156 10.972656 10.226562 10.859375 10.324219 10.691406 10.265625 10.476562 10.097656 10.378906L9.324219 9.933594 10.097656 9.488281C10.265625 9.390625 10.324219 9.175781 10.226562 9.007812zM14.734375 9.007812C14.636719 8.835938 14.421875 8.78125 14.253906 8.875L13.480469 9.324219 13.480469 8.429688C13.480469 8.234375 13.320312 8.078125 13.128906 8.078125 12.933594 8.078125 12.773438 8.234375 12.773438 8.429688L12.773438 9.324219 12 8.875C11.832031 8.78125 11.617188 8.835938 11.519531 9.007812 11.421875 9.175781 11.480469 9.390625 11.648438 9.488281L12.421875 9.933594 11.648438 10.378906C11.480469 10.476562 11.421875 10.691406 11.519531 10.859375 11.585938 10.972656 11.703125 11.039062 11.824219 11.039062 11.886719 11.039062 11.945312 11.023438 12 10.988281L12.773438 10.542969 12.773438 11.4375C12.773438 11.632812 12.933594 11.789062 13.128906 11.789062 13.320312 11.789062 13.480469 11.632812 13.480469 11.4375L13.480469 10.542969 14.253906 10.988281C14.308594 11.023438 14.367188 11.039062 14.429688 11.039062 14.550781 11.039062 14.667969 10.972656 14.734375 10.859375 14.832031 10.691406 14.773438 10.476562 14.605469 10.378906L13.832031 9.933594 14.605469 9.488281C14.773438 9.390625 14.832031 9.175781 14.734375 9.007812zM14.734375 9.007812"/>
    <path d="M 19.515625 13.339844 C 18.90625 13.339844 18.410156 13.832031 18.410156 14.441406 C 18.410156 14.925781 18.726562 15.339844 19.164062 15.488281 L 19.164062 15.945312 C 19.164062 16.140625 19.320312 16.296875 19.515625 16.296875 C 19.710938 16.296875 19.867188 16.140625 19.867188 15.945312 L 19.867188 15.488281 C 20.304688 15.339844 20.617188 14.925781 20.617188 14.441406 C 20.617188 13.832031 20.125 13.339844 19.515625 13.339844 Z M 19.515625 14.839844 C 19.292969 14.839844 19.117188 14.664062 19.117188 14.441406 C 19.117188 14.222656 19.292969 14.042969 19.515625 14.042969 C 19.734375 14.042969 19.914062 14.222656 19.914062 14.441406 C 19.914062 14.664062 19.734375 14.839844 19.515625 14.839844 Z M 19.515625 14.839844"/>
</svg>

<svg xmlns="http://www.w3.org/2000/svg" width="32" height="32" viewBox="0 0 24 24">
    <path d="M22.52 6.2H1.48C.664 6.2 0 6.862 0 7.68v4.508c0 .816.664 1.48 1.48 1.48H14.63a.353.353 0 1 0 0-.707H1.48a.776.776 0 0 1-.777-.774V7.68c0-.43.348-.778.777-.778h21.04c.43 0 .777.348.777.778v3.383c0 .19.156.351.351.351.196 0 .352-.16.352-.351V7.68c0-.817-.664-1.48-1.48-1.48zm0 0"/>
    <path d="M22.496 11.895v-.457a2.986 2.986 0 0 0-2.98-2.985 2.99 2.99 0 0 0-2.985 2.985v.457c-.433.144-.75.558-.75 1.043v3.757c0 .61.496 1.106 1.102 1.106h5.262c.609 0 1.105-.496 1.105-1.106v-3.758a1.1 1.1 0 0 0-.754-1.042zm-2.98-2.735a2.28 2.28 0 0 1 2.277 2.277v.399h-4.555v-.399a2.277 2.277 0 0 1 2.278-2.277zm3.027 7.535c0 .223-.18.403-.398.403h-5.262a.401.401 0 0 1-.399-.403v-3.758a.4.4 0 0 1 .399-.398h5.262a.4.4 0 0 1 .398.399zm0 0M5.715 9.008a.353.353 0 0 0-.48-.133l-.774.45V8.43a.35.35 0 0 0-.352-.352.35.35 0 0 0-.351.352v.894l-.774-.449a.353.353 0 0 0-.351.613l.773.446-.773.445a.352.352 0 0 0-.13.48c.063.114.184.18.306.18a.326.326 0 0 0 .175-.05l.774-.446v.895a.35.35 0 0 0 .351.351.35.35 0 0 0 .352-.351v-.895l.773.445c.055.035.118.051.176.051a.351.351 0 0 0 .305-.18.352.352 0 0 0-.13-.48l-.772-.445.773-.446a.352.352 0 0 0 .129-.48zm0 0M10.227 9.008a.357.357 0 0 0-.485-.133l-.773.45V8.43a.35.35 0 0 0-.352-.352.353.353 0 0 0-.351.352v.894l-.774-.449a.353.353 0 0 0-.351.613l.773.446-.773.445a.352.352 0 0 0-.13.48c.067.114.184.18.305.18a.326.326 0 0 0 .176-.05l.774-.446v.895c0 .195.16.351.351.351a.35.35 0 0 0 .352-.351v-.895l.773.445c.059.035.117.051.176.051a.358.358 0 0 0 .309-.18.352.352 0 0 0-.13-.48l-.773-.445.774-.446a.352.352 0 0 0 .129-.48zm0 0M14.734 9.008a.353.353 0 0 0-.48-.133l-.774.45V8.43a.353.353 0 1 0-.707 0v.894L12 8.875a.353.353 0 0 0-.352.613l.774.446-.774.445a.352.352 0 0 0-.128.48c.066.114.183.18.304.18a.317.317 0 0 0 .176-.05l.773-.446v.895a.353.353 0 0 0 .707 0v-.895l.774.445c.055.035.113.051.176.051a.356.356 0 0 0 .304-.18.352.352 0 0 0-.129-.48l-.773-.445.773-.446a.352.352 0 0 0 .13-.48zm0 0"/>
    <path d="M19.516 13.34c-.61 0-1.106.492-1.106 1.101 0 .485.317.899.754 1.047v.457a.35.35 0 0 0 .352.352.35.35 0 0 0 .351-.352v-.457c.438-.148.75-.562.75-1.047a1.1 1.1 0 0 0-1.101-1.101zm0 1.5a.395.395 0 0 1-.399-.399.398.398 0 1 1 .797 0c0 .223-.18.399-.398.399zm0 0"/>
</svg>
